X: 10352
T: ROYAL ALBERT, OR PRINCE OF WALES CONTRE DANCE
R: jig
B: K\"ohler's Violin Repository, v.1, 1885 p.32 #2
F: http://www.archive.org/details/klersviolinrepos01edin
Z: 2011 John Chambers <jc:trillian.mit.edu>
M: 6/8
L: 1/8
K: G
uD |\
G>AG B>AG | B<dd (d2c) | B>dg (d2c) | B>cA (G2D) |\
G>AG B>AG | B<dd (d2g) | fgf ed^c | edd d2 ||
(uf/g/) |\
(a2d) (c'2b) | agf {a}gfg | (a2d) (c'2b) | agf (.g2.d) |\
ec'c' dbb | caa Bgg | cBA (d2F) | A<GG G2 ||
z |\
vB3 A>GA | A>GG G3 | d3 c>Bc | c>BB (B2g) |\
(g2f) (f2e) | (e2d) (d2c) | B>cd d>cB | B>AA A2 ||
ud |\
ggg gdB | edd dfa | c'c'c' c'af | a<gg (g2d) |\
ec'c' dbb | caa Bgg | c>BA (d2F) | A<GG G2 "_D.C."|]

%%sep 2 1 500

